X: 1
T:THE DUSTY MILLER
B:John of the Greeny Cheshire Way
N: John Offord, Reproduced with permission
M:3/2
L:1/8
K:G
B3 c d2 B2 A2 G2| F2 A2 A2 B2 c2 A2 | B3 c d2 B2 A2 G2 | D2 G2 G2 B2 A2
G2 :|
|:B2 c2 d2 e2 f2 g2| a2 A2 A2 c2 B2 A2 | B2 c2 d2 e2 f2 a2 | g2 G2 G2 B2 A2
G2 :|
